!!!SOCIAL_FUNCTION:	miscellaneous dance songs
!!!PDT:	1932
!!!OTL: No_117_Frog_Dance_Song.krn
!!!REG: Wisconsin
!!!LANG: Non-Tone
!!!LING_GROUP: Algonquin
**kern
*staff1
=1-
*clefF4
*k[f#c#g#d#a#]
*M2/4
12c#\L
12c#\
12c#\J
4c#\
=2
8c#\L
8B\J
8F#\L
8F#\J
=3
12F#\L
12B\
12B\J
8F#\
8r
=4
8G#\L
8F#\J
8F#\L
8F#\J
=5
12F#\L
12B\
12B\J
8F#\
8r
=6
8G#\L
8G#\J
8F#\L
8F#\J
=7
12F#\L
12B\
12B\J
8F#\
8r
=8
8G#\L
8G#\J
8F#\L
8F#\J
=9
12F#\L
12B\
12B\J
8F#\
8r
=10||
*M3/4
12c#\L
12c#\
12c#\J
2c#\
=11||
*M2/4
8c#\L
8c#\J
8B\L
8B\J
=12
12B\L
12c#\
12B\J
8F#\
8r
=13
8B\L
8F#\J
8F#\L
8F#\J
=14
12F#\L
12B\
12B\J
8F#\
8r
=15
8G#\L
8G#\J
8F#\L
8F#\J
=16
12F#\L
12B\
12B\J
8F#\
8r
=17
8G#\L
8G#\J
8F#\L
8F#\J
==
*-
